assets/svg/icon_profile_user.svg

<svg width="24" height="24" viewBox="0 0 24 24" fill="none" xmlns="http://www.w3.org/2000/svg">
<path fill-rule="evenodd" clip-rule="evenodd" d="M11.9996 3.29102C9.87269 3.29102 8.14844 5.01527 8.14844 7.14225C8.14844 9.26922 9.87269 10.9935 11.9996 10.9935C14.1267 10.9935 15.8509 9.26922 15.8509 7.14225C15.8509 5.01527 14.1267 3.29102 11.9996 3.29102ZM9.36462 7.14225C9.36462 5.68694 10.5444 4.50719 11.9996 4.50719C13.455 4.50719 14.6347 5.68694 14.6347 7.14225C14.6347 8.59755 13.455 9.7773 11.9996 9.7773C10.5444 9.7773 9.36462 8.59755 9.36462 7.14225Z" fill="#FFA143"/>
<path fill-rule="evenodd" clip-rule="evenodd" d="M12.0007 12.2134C10.1249 12.2134 8.39673 12.6398 7.11611 13.3601C5.85456 14.0698 4.90635 15.1453 4.90635 16.47L4.90631 16.5527C4.90539 17.4947 4.90424 18.677 5.94126 19.5214C6.45162 19.937 7.16559 20.2325 8.13021 20.4279C9.09753 20.6236 10.3583 20.7266 12.0007 20.7266C13.6432 20.7266 14.904 20.6236 15.8712 20.4279C16.8359 20.2325 17.5499 19.937 18.0602 19.5214C19.0972 18.677 19.0961 17.4947 19.0952 16.5527L19.0951 16.47C19.0951 15.1453 18.147 14.0698 16.8854 13.3601C15.6047 12.6398 13.8765 12.2134 12.0007 12.2134ZM6.12253 16.47C6.12253 15.7798 6.62634 15.0309 7.71236 14.4201C8.77932 13.82 10.2943 13.4296 12.0007 13.4296C13.7072 13.4296 15.2221 13.82 16.2891 14.4201C17.3752 15.0309 17.8789 15.7798 17.8789 16.47C17.8789 17.5304 17.8462 18.1273 17.2922 18.5784C16.9918 18.8231 16.4896 19.0618 15.6299 19.2358C14.773 19.4093 13.6014 19.5105 12.0007 19.5105C10.4001 19.5105 9.22844 19.4093 8.37149 19.2358C7.51184 19.0618 7.00963 18.8231 6.70921 18.5784C6.15522 18.1273 6.12253 17.5304 6.12253 16.47Z" fill="#FFA143"/>
</svg>

<svg xmlns="http://www.w3.org/2000/svg" width="24" height="24" fill="none"><path fill="#FFA143" fill-rule="evenodd" d="M12 3.291a3.851 3.851 0 1 0 0 7.702 3.851 3.851 0 0 0 0-7.702M9.365 7.142a2.635 2.635 0 1 1 5.27 0 2.635 2.635 0 0 1-5.27 0M12 12.213c-1.875 0-3.603.427-4.884 1.147-1.261.71-2.21 1.785-2.21 3.11v.083c0 .942-.002 2.124 1.035 2.968.51.416 1.225.712 2.19.907.967.196 2.227.299 3.87.299 1.642 0 2.903-.103 3.87-.3.965-.194 1.679-.49 2.19-.906 1.036-.844 1.035-2.026 1.034-2.968v-.083c0-1.325-.948-2.4-2.21-3.11-1.28-.72-3.009-1.147-4.884-1.147M6.124 16.47c0-.69.503-1.44 1.59-2.05 1.066-.6 2.581-.99 4.288-.99 1.706 0 3.221.39 4.288.99 1.086.61 1.59 1.36 1.59 2.05 0 1.06-.033 1.657-.587 2.108-.3.245-.802.484-1.662.658-.857.173-2.029.274-3.63.274s-2.772-.1-3.629-.274c-.86-.174-1.361-.413-1.662-.658-.554-.45-.586-1.048-.586-2.108" clip-rule="evenodd"/></svg>
